!!!OTL: Man gan niu(3)
!!!ARE: Asia, China,ˇAnhui, Huainan
!! III, 580
!!!SCT: C1608
!!!YEM: Copyright 1995, estate of Helmut Schaffrath.
**kern
*ICvox
*Ivox
*M2/4
*k[f#c#g#]
*A:
{8cc#
8a
4b
=1
8a
8cc#
4b
=2
8cc#
8b
4a
=3
2a}
=4
{8cc#
8a
8b
8cc#
=5
8a
8cc#
4b
=6
8cc#
8a
8b
8b
=7
8a
8b
8a
8f#
=8
2e}
=9
{8f#
8a
8e
8f#
=10
4e
4c#
=11
8b
8a#
4b}
=12
{8f#
8b
8f#
8b
=13
8e
8f#
8b
8a
=14
8f#
8a
8e
8f#
=15
2e}
=16
{8cc#
8cc#
8b
16cc#
16b
=17
8a
8cc#
4b
=18
8b
8b
4a
=19
2a}
=20
{8cc#
8b
8b
8b
=21
8a
8b
8b
8cc#
=22
4b
8b
8g#
=23
8f#
8g#
4f#}
=24
{8f#
4f#
8f#
=25
4.e
8f#
=26
4f#
8e
8f#
=27
2e}
==
!!!AGN: Shange. NannÅ qing
!!!AMT: simple duple
!!!AIN: vox
!!!EED: Helmut Schaffrath
!!!EEV: 1.0
*-
